X: 1
T: Mufthar
R: jig
M: 6/8
L: 1/8
K: Emin
D |: EEE BBB | A3 AGF | EEE BAB | d3 AGF |EEE BBB |!
A3 AGF |1 G3 GFE | (F3 F)ED :|2 EEE AGF | E3 z Bd ||!
|: efe edB | d3 dBd | e3 gdB | ded dBd |e f2 edB |!
A3 AGF |1 G3 GFE | F3 FBd :|2 EEE AGF | E6 ||
